!!!!SEGMENT: pl-wtm--r-1635_stefani-jozef--starodawnym-obyczajem.krn
!!!cenid: 18xx:2371
!!!COM: Stefani, Józef
!!!COM-rismid: pe30024097
!!!CDT: 1800/04/16-1876/03/19
!!!CNT: Polish
!!!OTL: Starodawnym obyczajem
!!!PDT:
!!!AGN:
!!!SMS-siglum: PL-Wtm
!!!SMS-shelfmark: R 1635
!!!SMS-shelfwork: W
!!!SMS-variant:
!!!SMS-altvar:
!!!NIFC-rismid: 1001115815
!!!URL-scan: http://repozytorium.nifc.pl/skany/pl-wtm-nut--r1635
!!!ONB-nifc:
!!!OMD: Tempo di Polacca
**kern	**kern	**dynam	**kern	**text	**dynam	**kern	**text	**kern	**text	**dynam
*part4	*part4	*part4	*part3	*part3	*part3	*part2	*part2	*part1	*part1	*part1
*staff5	*staff4	*	*staff3	*staff3	*	*staff2	*staff2	*staff1	*staff1	*
*Iforte	*Iforte	*	*Itenor	*	*	*Ialto	*	*Isoprn	*	*
*I"[Fortepian]	*I"[Fortepian]	*	*I"[Tenore e Basso]	*	*	*I"[Alto]	*	*I"[Soprano]	*	*
*clefF4	*clefG2	*	*clefF4	*	*	*clefG2	*	*clefG2	*	*
*k[f#]	*k[f#]	*	*k[f#]	*	*	*k[f#]	*	*k[f#]	*	*
*G:	*G:	*	*G:	*	*	*G:	*	*G:	*	*
*M3/4	*M3/4	*	*M3/4	*	*	*M3/4	*	*M3/4	*	*
!!LO:TX:t=P:problem:all\left or right:global
=1	=1	=1	=1	=1	=1	=1	=1	=1	=1	=1
(>16G\LL	(16g/LL	f	2.ryy	.	.	2.ryy	.	2.ryy	.	.
16D\	16d/	.	.	.	.	.	.	.	.	.
16E\	16e/	.	.	.	.	.	.	.	.	.
16F#\JJ	16f#/JJ	.	.	.	.	.	.	.	.	.
16G\LL	16g/LL	.	.	.	.	.	.	.	.	.
16F#\	16f#/	.	.	.	.	.	.	.	.	.
16G\	16g/	.	.	.	.	.	.	.	.	.
16A\JJ	16a/JJ	.	.	.	.	.	.	.	.	.
16B\LL	16b\LL	.	.	.	.	.	.	.	.	.
16A\	16a\	.	.	.	.	.	.	.	.	.
16B\	16b\	.	.	.	.	.	.	.	.	.
16c\JJ)	16cc\JJ)	.	.	.	.	.	.	.	.	.
=2	=2	=2	=2	=2	=2	=2	=2	=2	=2	=2
8d\L	8dd\L	.	2.ryy	.	.	2.ryy	.	2.ryy	.	.
(16d\L	(16dd\L	.	.	.	.	.	.	.	.	.
16e\JJ	16ee\JJ	.	.	.	.	.	.	.	.	.
8d\)	8dd\L)	.	.	.	.	.	.	.	.	.
8D'\L 8d	8dd'\	.	.	.	.	.	.	.	.	.
8C'\ 8c	8cc'\ 8ee	.	.	.	.	.	.	.	.	.
8AA'\J 8A	8cc'\J 8dd 8ff#	.	.	.	.	.	.	.	.	.
=3	=3	=3	=3	=3	=3	=3	=3	=3	=3	=3
16GG\ 16G	16b'\ 16dd 16gg	.	2.ryy	.	.	2.ryy	.	2.ryy	.	.
(16D\LL	(16d/LL	.	.	.	.	.	.	.	.	.
16E\	16e/	.	.	.	.	.	.	.	.	.
16F#\JJ	16f#/JJ	.	.	.	.	.	.	.	.	.
16G\LL	16g/LL	.	.	.	.	.	.	.	.	.
16F#\	16f#/	.	.	.	.	.	.	.	.	.
16G\	16g/	.	.	.	.	.	.	.	.	.
16A\JJ	16a/JJ	.	.	.	.	.	.	.	.	.
16B\LL	16b/LL	.	.	.	.	.	.	.	.	.
16A\	16a/	.	.	.	.	.	.	.	.	.
16B\	16b/	.	.	.	.	.	.	.	.	.
16c\JJ)	16cc/JJ)	.	.	.	.	.	.	.	.	.
!!LO:LB:g=original
=4	=4	=4	=4	=4	=4	=4	=4	=4	=4	=4
8d\L	8dd'\L	.	2.ryy	.	.	2.ryy	.	2.ryy	.	.
16d\L	(16dd\L	.	.	.	.	.	.	.	.	.
16e\JJ	16ee\JJ	.	.	.	.	.	.	.	.	.
8d\	8dd\)	.	.	.	.	.	.	.	.	.
8D\L 8d	8dd'\L	.	.	.	.	.	.	.	.	.
8C\ 8c	8cc'\ 8ee	.	.	.	.	.	.	.	.	.
8AA\J 8A	8cc'\J 8dd 8ff#	.	.	.	.	.	.	.	.	.
=5	=5	=5	=5	=5	=5	=5	=5	=5	=5	=5
8GG/ 8G	8b\ 8dd 8gg	.	2.ryy	.	.	2.ryy	.	2.ryy	.	.
8r	8r	.	.	.	.	.	.	.	.	.
8E\L 8G 8B	16gg\LL	.	.	.	.	.	.	.	.	.
.	(16ff#\	.	.	.	.	.	.	.	.	.
8E\J 8G 8c	16ee\	.	.	.	.	.	.	.	.	.
.	16dd\JJ	.	.	.	.	.	.	.	.	.
8AA\L 8E 8G	16cc#X\LL	.	.	.	.	.	.	.	.	.
.	16b\	.	.	.	.	.	.	.	.	.
8AA\J 8E 8G	16cc#\	.	.	.	.	.	.	.	.	.
.	16ee\JJ	.	.	.	.	.	.	.	.	.
=6	=6	=6	=6	=6	=6	=6	=6	=6	=6	=6
16D\ 16F#	16dd\)	.	2.ryy	.	.	2.ryy	.	2.ryy	.	.
(16D\LL	(16dd\LL	.	.	.	.	.	.	.	.	.
16F#\	16ff#\	.	.	.	.	.	.	.	.	.
16A\JJ	16aa\JJ	.	.	.	.	.	.	.	.	.
8d\)	8ddd\L)	.	.	.	.	.	.	.	.	.
8D'\L 8d	8dd'\ 8ff# 8aa	.	.	.	.	.	.	.	.	.
8BB'\ 8B	8dd'\ 8gg 8bb	.	.	.	.	.	.	.	.	.
8GG'\J 8G	8dd'\J 8gg 8bb	.	.	.	.	.	.	.	.	.
!!LO:LB:g=original
=7	=7	=7	=7	=7	=7	=7	=7	=7	=7	=7
16DD/ 16D	16dd\ 16ff# 16aa	.	2.ryy	.	.	2.ryy	.	2.ryy	.	.
(16D\LL	(16dd\LL	.	.	.	.	.	.	.	.	.
16F#\	16ff#\	.	.	.	.	.	.	.	.	.
16A\JJ	16aa\JJ	.	.	.	.	.	.	.	.	.
8d\)	8ddd\)	.	.	.	.	.	.	.	.	.
8D'\L 8d	8dd'\L 8ff# 8aa	.	.	.	.	.	.	.	.	.
8BB'\ 8B	8dd'\ 8gg 8bb	.	.	.	.	.	.	.	.	.
8GG'\J 8G	8dd'\J 8gg 8bb	.	.	.	.	.	.	.	.	.
=8	=8	=8	=8	=8	=8	=8	=8	=8	=8	=8
8DD/ 8D	8dd\ 8ff# 8aa	.	2.ryy	.	.	2.ryy	.	2.ryy	.	.
(16D\LL	8r	.	.	.	.	.	.	.	.	.
16E\JJ	.	.	.	.	.	.	.	.	.	.
8D/L)	4r	.	.	.	.	.	.	.	.	.
8C/	.	.	.	.	.	.	.	.	.	.
8BB/	(8.d/L	.	.	.	.	.	.	.	.	.
8AA/J	.	.	.	.	.	.	.	.	.	.
.	32e/LL	.	.	.	.	.	.	.	.	.
.	32f#/JJJ)	.	.	.	.	.	.	.	.	.
!!LO:LB:g=original
=9||	=9||	=9||	=9||	=9||	=9||	=9||	=9||	=9||	=9||	=9||
*^	*	*	*	*	*	*	*	*	*	*
!	!	!	!LO:DY:rj	!	!	!	!	!	!	!	!
(8GG\L	2.GG/	8.B/L 8.g	f	2.ryy	.	.	8.B/	.	8.g/	Sta-	.
8D\	.	.	.	.	.	.	.	.	.	.	.
.	.	16B/Jk 16d	.	.	.	.	16B/	.	16d/	-ro-	.
8G\	.	4B/ 4d	.	.	.	.	4B/	.	4d/	-daw-	.
8D\	.	.	.	.	.	.	.	.	.	.	.
8G\	.	4g/ 4b	.	.	.	.	4g/	.	4b/	-nym	.
8D\J)	.	.	.	.	.	.	.	.	.	.	.
=10	=10	=10	=10	=10	=10	=10	=10	=10	=10	=10	=10
(8GG\L	2.GG/	4.b\ 4.dd	.	2.ryy	.	.	4.b/	.	4.dd\	o-	.
8D\	.	.	.	.	.	.	.	.	.	.	.
8G\	.	.	.	.	.	.	.	.	.	.	.
8D\	.	8a#X\ 8cc#X	.	.	.	.	8a#X/	.	8cc#X\	-by-	.
8G\	.	8b\L 8dd	.	.	.	.	8b/	.	8dd\	-cza-	.
8D\J)	.	8g\J 8b	.	.	.	.	8g/	.	8b\	-jem,	.
=11	=11	=11	=11	=11	=11	=11	=11	=11	=11	=11	=11
*	*2\right	*	*	*	*	*	*	*	*	*	*
8DD/L	2.DD\	4.an/ 4.ccn	.	2.ryy	.	.	4.an/	.	4.ccn\	Co	.
(<8AA/	.	.	.	.	.	.	.	.	.	.	.
8D/	.	.	.	.	.	.	.	.	.	.	.
8AA/	.	8g#X/ 8b	.	.	.	.	8g#X/	.	8b\	go	.
8D/	.	8a/L 8cc	.	.	.	.	8a/	.	8cc\	do-	.
8AA/J	.	8f#/J 8a	.	.	.	.	8f#/	.	8dd\	-tąd	.
=12	=12	=12	=12	=12	=12	=12	=12	=12	=12	=12	=12
8GG\L)	2.GG/	8g/L 8b	.	2.ryy	.	.	8g/	.	8b/	Pol-	.
8D\	.	8f#/J 8a	.	.	.	.	8f#/	.	8a/	-ska	.
8G\	.	4g/	.	.	.	.	4g/	.	4g/	czci,	.
8D\	.	.	.	.	.	.	.	.	.	.	.
8G\	.	(8.d/L	.	.	.	.	4r	.	4r	.	.
8D\J	.	.	.	.	.	.	.	.	.	.	.
.	.	32e/LL	.	.	.	.	.	.	.	.	.
.	.	32f#/JJJ)	.	.	.	.	.	.	.	.	.
!!LO:LB:g=original
=13	=13	=13	=13	=13	=13	=13	=13	=13	=13	=13	=13
8GG\L	2.GG/	8.B/L 8.g	.	2.ryy	.	.	8.B/	.	8.g/	Dziś	.
8D\	.	.	.	.	.	.	.	.	.	.	.
.	.	16B/Jk 16d	.	.	.	.	16B/	.	16d/	przed	.
8G\	.	4B/ 4d	.	.	.	.	4B/	.	4d/	To-	.
8D\	.	.	.	.	.	.	.	.	.	.	.
8G\	.	4g/ 4b	.	.	.	.	4g/	.	4b/	-bą	.
8D\J	.	.	.	.	.	.	.	.	.	.	.
=14	=14	=14	=14	=14	=14	=14	=14	=14	=14	=14	=14
*rep	*rep	*	*	*	*	*	*	*	*	*	*
8GG\L	2.GG/	4.b\ 4.dd	.	2.ryy	.	.	4.b/	.	4.dd\	Oj-	.
8D\	.	.	.	.	.	.	.	.	.	.	.
8G\	.	.	.	.	.	.	.	.	.	.	.
8D\	.	8a#X\ 8cc#X	.	.	.	.	8a#X/	.	8cc#X\	-cze	.
8G\	.	8b\L 8dd	.	.	.	.	8b/	.	8dd\	sta-	.
8D\J	.	8g\J 8b	.	.	.	.	8g/	.	8b\	-jem	.
*Xrep	*Xrep	*	*	*	*	*	*	*	*	*	*
*v	*v	*	*	*	*	*	*	*	*	*	*
=15	=15	=15	=15	=15	=15	=15	=15	=15	=15	=15
*tremolo	*	*	*	*	*	*	*	*	*	*
!LO:TX:t=P:problem:mixedbeam	!	!	!	!	!	!	!	!	!	!
8AA/L	8.f#/L 8.a	.	2.ryy	.	.	8.f#/	.	8.a/	By	.
8A\	.	.	.	.	.	.	.	.	.	.
.	16g/Jk 16b	.	.	.	.	16g/	.	16b/	ży-	.
8AA/	4.f#/ 4.a	.	.	.	.	4.f#/	.	4.a/	-cze-	.
8A\	.	.	.	.	.	.	.	.	.	.
8AA/	.	.	.	.	.	.	.	.	.	.
8A\J	8d/ 8f#	.	.	.	.	8d/	.	8f#/	-nia	.
*Xtremolo	*	*	*	*	*	*	*	*	*	*
=16	=16	=16	=16	=16	=16	=16	=16	=16	=16	=16
!LO:TX:t=P:problem:mixedbeam	!	!	!	!	!	!	!	!	!	!
8AA/L	8d/L 8e	.	2.ryy	.	.	8d/	.	8e/	zło-	.
8A\J	8c#X/J 8a	.	.	.	.	8c#X/	.	8a/	-żyć	.
8D\ 8F#	16d/LL	.	.	.	.	4d/	.	4d/	Ci	.
.	(16d/	.	.	.	.	.	.	.	.	.
8r	16e/	.	.	.	.	.	.	.	.	.
.	16f#/JJ	.	.	.	.	.	.	.	.	.
4r	16g/LL	.	.	.	.	4r	.	4r	.	.
.	16g#X/	.	.	.	.	.	.	.	.	.
.	16a/	.	.	.	.	.	.	.	.	.
.	16b/JJ)	.	.	.	.	.	.	.	.	.
!!LO:PB:g=original
=17	=17	=17	=17	=17	=17	=17	=17	=17	=17	=17
*tremolo	*	*	*	*	*	*	*	*	*	*
!	!	!LO:DY:rj	!	!	!	!	!	!	!	!LO:DY:a:rj
8D\L	8.a/L 8.cc	p	2.ryy	.	.	8.a/	.	8.cc\	Za	p
8d\	.	.	.	.	.	.	.	.	.	.
.	16g#X/Jk 16b	.	.	.	.	16g#X/	.	16b\	twych	.
8D\	4a/ 4cc	.	.	.	.	4a/	.	4cc\	co-	.
8d\	.	.	.	.	.	.	.	.	.	.
8D\	4gn/ 4b	.	.	.	.	4gn/	.	4b\	-rek	.
8d\J	.	.	.	.	.	.	.	.	.	.
*Xtremolo	*	*	*	*	*	*	*	*	*	*
=18	=18	=18	=18	=18	=18	=18	=18	=18	=18	=18
*tremolo	*	*	*	*	*	*	*	*	*	*
*rep	*	*	*	*	*	*	*	*	*	*
8D\L	8.f#/L 8.a	<	2.ryy	.	.	8.f#/	.	8.a/	wy-	.
8d\	.	.	.	.	.	.	.	.	.	.
.	16e#X/Jk 16g#X	.	.	.	.	16e#X/	.	16g#X/	-cho-	<
8D\	4f#/ 4a	.	.	.	.	4f#/	.	4a/	-wa-	.
8d\	.	.	.	.	.	.	.	.	.	.
!	!	!	!	!	!	!LO:SIC:v:s=4g#/	!	!	!	!
8D\	4g#/ 4b	.	.	.	.	4g/	.	4b/	-nie,	.
8d\J	.	.	.	.	.	.	.	.	.	.
*Xrep	*	*	*	*	*	*	*	*	*	*
*Xtremolo	*	*	*	*	*	*	*	*	*	*
=19	=19	=19	=19	=19	=19	=19	=19	=19	=19	=19
*tremolo	*	*	*	*	*	*	*	*	*	*
*rep	*	*	*	*	*	*	*	*	*	*
8D\L	8.a\L 8.cc	[	2.ryy	.	.	8.a/	.	8.cc\	Niech	[
8d\	.	.	.	.	.	.	.	.	.	.
.	16a#X\Jk 16cc#X	>	.	.	.	16a#X/	.	16cc#X\	Ci	>
8D\	4.b\ 4.dd	.	.	.	.	4.b/	.	4.dd\	Bóg	.
8d\	.	.	.	.	.	.	.	.	.	.
8D\	.	.	.	.	.	.	.	.	.	.
8d\J	8an\ 8ccn	]]	.	.	.	8an/	.	8ccn\	po-	]]
*Xrep	*	*	*	*	*	*	*	*	*	*
*Xtremolo	*	*	*	*	*	*	*	*	*	*
!!LO:LB:g=original
=20	=20	=20	=20	=20	=20	=20	=20	=20	=20	=20
*^	*	*	*	*	*	*	*	*	*	*
8.d/L	8.G\L	8.g/L 8.b	.	2.ryy	.	.	8.g/	.	8.b/	-cie-	.
16c#X/Jk 16e	16G\Jk	16g/Jk 16a#X	.	.	.	.	16g/	.	16a#X/	-chę	.
16G\ 16d	2ryy	16g/ 16b	.	.	.	.	4g/	.	4b/	da!	.
16d\LL	.	(>16dd\LL	.	.	.	.	.	.	.	.	.
16c#X\	.	16cc#X\	.	.	.	.	.	.	.	.	.
16d\JJ	.	16dd\JJ	.	.	.	.	.	.	.	.	.
16e\LL	.	16ee\LL	.	.	.	.	4r	.	4r	.	.
16d\	.	16dd\	.	.	.	.	.	.	.	.	.
16cn\	.	16ccn\	.	.	.	.	.	.	.	.	.
!	!	!LO:SIC:v:s=16an\JJ)	!	!	!	!	!	!	!	!	!
16A\JJ	.	16a#\JJ)	.	.	.	.	.	.	.	.	.
*v	*v	*	*	*	*	*	*	*	*	*	*
=21	=21	=21	=21	=21	=21	=21	=21	=21	=21	=21
!	!	!	!	!	!	!	!	!	!	!LO:DY:a
8GG\L 8G	8.B/L 8.g	.	2.ryy	.	.	8.B/	.	8.g/	A	f
8D\	.	.	.	.	.	.	.	.	.	.
.	16B/Jk 16d	.	.	.	.	16B/	.	16d/	w_ich	.
8GG\ 8G	4B/ 4g	.	.	.	.	4B/	.	4d/	ser-	.
8D\	.	.	.	.	.	.	.	.	.	.
8GG\ 8G	4g/ 4b	.	.	.	.	4g/	.	4b\	-cach	.
8D\J	.	.	.	.	.	.	.	.	.	.
=22	=22	=22	=22	=22	=22	=22	=22	=22	=22	=22
*^	*	*	*	*	*	*	*	*	*	*
8GG\L	2.GG\	4.b\ 4.dd	.	2.ryy	.	.	4.b/	.	4.dd\	po-	.
8D\	.	.	.	.	.	.	.	.	.	.	.
8G\	.	.	.	.	.	.	.	.	.	.	.
8D\	.	8a#X\ 8cc#X	.	.	.	.	8a#X/	.	8cc#X\	-zo-	.
8G\	.	8b\L 8dd	.	.	.	.	8b/	.	8dd\	-sta-	.
8D\J	.	8g\J 8b	.	.	.	.	8g/	.	8b\	-nie	.
*v	*v	*	*	*	*	*	*	*	*	*	*
!!LO:LB:g=original
=23	=23	=23	=23	=23	=23	=23	=23	=23	=23	=23
!	!	!LO:DY:rj	!LO:TX:t=P:problem:zbędna pięciolinia z kluczem C4	!	!	!	!	!	!	!LO:DY:a
4C\ 4E-X 4A	8.a/L	p	2.r	.	.	8.a/	.	8.a/	Wdzię-	p
.	16e-X/Jk	.	.	.	.	16e-X/	.	16e-X/	-czność	.
4D\ 4G 4B	4d/	.	.	.	.	4d/	.	4d/	po-	.
4D\ 4G 4B	4g/	.	.	.	.	4g/	.	4g/	-ki	.
=24	=24	=24	=24	=24	=24	=24	=24	=24	=24	=24
*	*^	*	*	*	*	*	*	*	*	*
!	!	!	!LO:HP:a	!	!	!	!	!	!	!	!
4D\ 4F#X 4c	8.b/L	4f#\	>	4r	.	.	8.f#/	.	8.b/	ży-	>
.	16a/Jk	.	]	.	.	.	16f#/	.	16a/	-cie	]
8G\L 8B	8g/L	8g\	.	4r	.	.	4g/	.	4g/	drga	<
16G\L	16g/L	8ryy	f	.	.	.	.	.	.	.	.
16G\JJ	16g/JJ	.	.	.	.	.	.	.	.	.	.
!	!	!	!	!	!	!LO:DY:b:rj	!	!	!	!	!
8.G\L	8.g/L	4ryy	.	8.G\	Ot	f	8.g/	.	8.g/	Ot	.
16G\Jk	16g/Jk	.	.	16G\	i	.	16g/	.	16g/	i	[[
*	*v	*v	*	*	*	*	*	*	*	*	*
=25||	=25||	=25||	=25||	=25||	=25||	=25||	=25||	=25||	=25||	=25||
*k[]	*k[]	*	*k[]	*	*	*k[]	*	*k[]	*	*
*	*	*	*	*	*	*	*	*	*	*
*^	*	*	*	*	*	*	*	*	*	*
!	!	!	!	!	!	!	!	!	!	!	!LO:DY:a
8C\L	2.C/	4e/ 4cc	.	4C\ 4G	.	.	4e/	.	4cc\	z_gło-	f
8G\	.	.	.	.	.	.	.	.	.	.	.
8c\	.	4e/ 4g	.	4C\ 4c	.	.	4e/	.	4g/	-sem	.
8G\	.	.	.	.	.	.	.	.	.	.	.
8c\	.	8.d#X/L 8.f#X	.	8C\ 8c	.	.	8.d#X/	.	8.f#X/	Two-	.
8G\J	.	.	.	8C\ 8c	.	.	.	.	.	.	.
.	.	16e/Jk 16g	.	.	.	.	16e/	.	16g/	-ich	.
=26	=26	=26	=26	=26	=26	=26	=26	=26	=26	=26	=26
*rep	*rep	*	*	*	*	*	*	*	*	*	*
8C\L	2.C/	4g/ 4cc 4ee	.	4C\ 4c	.	.	4g/	.	4ee\	dzie-	.
8G\	.	.	.	.	.	.	.	.	.	.	.
8c\	.	4e/ 4g 4cc	.	4C\ 4G	.	.	4e/	.	4cc\	-ci	.
8G\	.	.	.	.	.	.	.	.	.	.	.
8c\	.	8e/L 8g 8cc	.	8C\ 8G	.	.	8e/	.	8cc\	łą-	.
8G\J	.	8g/J 8cc 8ee	.	8C\ 8c	.	.	8g/	.	8ee\	-czy	.
*Xrep	*Xrep	*	*	*	*	*	*	*	*	*	*
!!LO:PB:g=original
=27	=27	=27	=27	=27	=27	=27	=27	=27	=27	=27	=27
8GG\L	2.GG/	4.f/ 4.dd	.	4.GG\ 4.B	.	.	4.f/	.	4.dd\	się	.
(8D\	.	.	.	.	.	.	.	.	.	.	.
8G\	.	.	.	.	.	.	.	.	.	.	.
8D\	.	8a/L 8ff	.	8GG\ 8B	.	.	8a/	.	8ff\	przy-	.
8G\	.	8g/ 8ee	.	8GG\ 8B	.	.	8g/	.	8ee\	-ia-	.
8D\J)	.	8f/J 8dd	.	8GG\ 8B	.	.	8f/	.	8dd\	-źni	.
*v	*v	*	*	*	*	*	*	*	*	*	*
=28	=28	=28	=28	=28	=28	=28	=28	=28	=28	=28
*	*	*	*2\right	*	*	*	*	*2\right	*	*
8C\L	(16e/LL 16cc	.	2C\ 2c	.	.	2e/	.	2cc\	głos,	.
.	16g/	.	.	.	.	.	.	.	.	.
8G\J	16e/	.	.	.	.	.	.	.	.	.
.	16g/JJ)	.	.	.	.	.	.	.	.	.
4C\ 4c	4e/ 4cc	.	.	.	.	.	.	.	.	.
8.G\L	8.g/L	.	8.G\	.	.	8.g/	.	8.g/	Szcze-	.
16G\Jk	16g/Jk	.	16G\	.	.	16g/	.	16g/	-rość	.
=29	=29	=29	=29	=29	=29	=29	=29	=29	=29	=29
*^	*	*	*	*	*	*	*	*	*	*
8C\L	2.C/	4e/ 4cc	.	4C\ 4G	.	.	4e/	.	4cc\	w_za-	.
(8G\	.	.	.	.	.	.	.	.	.	.	.
8c\	.	4e/ 4g	.	4C\ 4G 4c	.	.	4e/	.	4g/	-cnych	.
8G\	.	.	.	.	.	.	.	.	.	.	.
8c\	.	8d#X/L 8f#X	.	8C\ 8c	.	.	8d#X/	.	8f#X/	twa-	.
8G\J)	.	8e/J 8g	.	8C\ 8c	.	.	8e/	.	8g/	-rzach	.
=30	=30	=30	=30	=30	=30	=30	=30	=30	=30	=30	=30
*rep	*rep	*	*	*	*	*	*	*	*	*	*
8C\L	2.C/	4g/ 4cc 4ee	.	4C\ 4c	.	.	4g/	.	4ee\	świe-	.
(8G\	.	.	.	.	.	.	.	.	.	.	.
8c\	.	4e/ 4g 4cc	.	4C\ 4G	.	.	4e/	.	4cc\	-ci,	.
8G\	.	.	.	.	.	.	.	.	.	.	.
8c\	.	8g/L 8cc 8ee	.	8C\ 8G	.	.	8g/	.	8ee\	Im	.
8G\J)	.	8e/J 8g 8cc	.	8C\ 8c	.	.	8e/	.	8cc\	też	.
*Xrep	*Xrep	*	*	*	*	*	*	*	*	*	*
*v	*v	*	*	*	*	*	*	*	*	*	*
!!LO:LB:g=original
=31	=31	=31	=31	=31	=31	=31	=31	=31	=31	=31
*tremolo	*	*	*	*	*	*	*	*	*	*
8D\L 8G 8B	4g/ 4b	.	4.D\ 4.B	.	.	4.g/	.	4.b\	dro-	.
8D\ 8G 8B	.	.	.	.	.	.	.	.	.	.
8D\ 8G 8B	16g/LL 16b	.	.	.	.	.	.	.	.	.
.	(16dd/	.	.	.	.	.	.	.	.	.
8D\J 8G 8B	16cc#X/	.	8D\ 8B	.	.	8g/	.	8dd\	-gi	.
.	16dd/JJ)	.	.	.	.	.	.	.	.	.
*Xtremolo	*	*	*	*	*	*	*	*	*	*
8D\L 8G 8A	16a\LL	.	8D\ 8A	.	.	8g/	.	8a\	bra-	.
.	(16dd\	.	.	.	.	.	.	.	.	.
!LO:SIC:v:n=2:s=8F#	!	!	!	!	!	!	!	!	!	!
8D\J 8F 8A	16cc#\	.	8D\ 8A	.	.	8f#X/	.	8dd\	-tni	.
.	16dd\JJ)	.	.	.	.	.	.	.	.	.
=32	=32	=32	=32	=32	=32	=32	=32	=32	=32	=32
!LO:SIC:v:s=16F#\LL	!	!	!	!	!	!	!	!	!	!
!	!LO:SIC:v:s=16f#/LL	!	!	!	!	!	!	!	!	!
(16F\LL	(16f/LL	.	2G\ 2B	.	.	2g/	.	2g/	los,	.
16G\	16g/	.	.	.	.	.	.	.	.	.
16D\	16b/	.	.	.	.	.	.	.	.	.
16BB\JJ	16dd/JJ	.	.	.	.	.	.	.	.	.
4GG/)	4gg\)	.	.	.	.	.	.	.	.	.
!	!	!	!	!	!	!	!	!	!	!LO:DY:a
8.G\L	8.g/L	.	8.G\	.	.	8.g/	.	8.g/	Toż	p
16G\Jk	16g/Jk	.	16G\	.	.	16g/	.	16g/	ży-	.
=33	=33	=33	=33	=33	=33	=33	=33	=33	=33	=33
4.G\ 4.B	4.dd\ 4.ff	.	4.G\ 4.B	.	.	4.dd\	.	4.ff\	-cze-	>
8A\L 8c	8cc\L 8ee	.	8A\ 8c	.	.	8cc\	.	8ee\	-nie	.
8B\ 8d	8b\ 8dd	.	8B\ 8d	.	.	8b\	.	8dd\	się	]
8c\J 8e	8a\J 8cc	.	8c\ 8e	.	.	8a\	.	8cc\	je-	.
=34	=34	=34	=34	=34	=34	=34	=34	=34	=34	=34
*^	*	*	*	*	*	*	*	*	*	*
4d\ 4f	2ryy	4g/ 4b	.	4d\ 4f	.	.	4g/	.	4b\	-dno-	.
4d\ 4f	.	4g/ 4b	.	4d\ 4f	.	.	4g/	.	4b\	-czy,	.
!	!	!	!LO:DY:rj	!	!	!	!	!	!	!	!LO:DY:a
8.G\L	8.GG\L	8.g/L	f	8.G\	.	.	8.g/	.	8.g/	W_je-	f
16G\Jk	16GG\Jk	16g/Jk	.	16G\	.	.	16g/	.	16g/	-den	.
*v	*v	*	*	*	*	*	*	*	*	*	*
!!LO:LB:g=original
=35	=35	=35	=35	=35	=35	=35	=35	=35	=35	=35
4.C\ 4.c	4.e/ 4.g 4.cc	.	4.C\ 4.c	.	.	4.g/	.	4.cc\	w_ser-	.
8GG\ 8G	8d/ 8g 8b	.	8G\ 8d	.	.	8g/	.	8b\	-cach	.
8.EE/L 8.E	8.e/L 8.g 8.cc	.	8.E\ 8.c	.	.	8.g/	.	8.cc\	brzmią-	.
16CC/Jk 16C	16g/Jk 16cc 16ee	.	16C\ 16c	.	.	16g/	.	16ee\	-cy	.
=36	=36	=36	=36	=36	=36	=36	=36	=36	=36	=36
2GG/ 2G	2f;/ 2a 2dd	.	2G;\ 2B	.	.	2g;/	.	2dd;\	chór,	.
8.G\L	8.g/L	.	8.G\	.	.	8.g/	.	8.g/	Niech	.
!	!	!	!	!	!	!LO:TX:a:t=V&colon;S&colon;	!	!	!	!
16G\Jk	16g/Jk	.	16G\	.	.	16g/	.	16g/	Cię	.
!!LO:PB:g=original
=37	=37	=37	=37	=37	=37	=37	=37	=37	=37	=37
*^	*	*	*	*	*	*	*	*	*	*
8C\L	2.C/	4e/ 4cc	.	4C\ 4G	.	.	4e/	.	4cc\	szczę-	.
8G\	.	.	.	.	.	.	.	.	.	.	.
8c\	.	4e/ 4g	.	4C\ 4c	.	.	4e/	.	4g/	-ściem	.
8G\	.	.	.	.	.	.	.	.	.	.	.
8c\	.	8d#X/L 8f#X	.	8C\ 8c	.	.	8d#X/	.	8f#X/	Bóg	.
8G\J	.	8e/J 8g	.	8C\ 8c	.	.	8e/	.	8g/	o-	.
*v	*v	*	*	*	*	*	*	*	*	*	*
=38	=38	=38	=38	=38	=38	=38	=38	=38	=38	=38
8C\L	4g/ 4cc 4ee	.	4C\ 4c	.	.	4g/	.	4ee\	-to-	.
8G\J	.	.	.	.	.	.	.	.	.	.
4C\ 4c	4e/ 4g 4cc	.	4C\ 4G	.	.	4e/	.	4cc\	-czy	.
8FF/L 8F	8f/L 8a	.	8F\ 8A	.	.	8f/	.	8a\	I	.
8FF/J 8F	8f/J 8a 8dd	.	8F\ 8A	.	.	8f/	.	8dd\	po-	.
=39	=39	=39	=39	=39	=39	=39	=39	=39	=39	=39
8GG\L 8G	8e/L 8g 8cc	.	8G\	.	.	8f/	.	8cc\	-cie-	.
8GG\J 8G	8e/J 8g	.	8G\ 8c	.	.	8e/	.	8g\	-chą	.
4.GG;>\ 4.G	4.g;</ 4.b 4.ee	.	4.G;>\ 4.B	.	.	4.g/	.	4.ee;>\	Two-	.
8GG\ 8G	8f/ 8g 8b 8dd	.	8GG\ 8B	.	.	8f/	.	8dd\	-ich	.
=40	=40	=40	=40	=40	=40	=40	=40	=40	=40	=40
4C\ 4c	4e/ 4g 4cc	.	4C\ 4c	.	.	4e/	.	4cc\	cór,	.
8r	8r	.	4r	.	.	4r	.	4r	.	.
8AA\L 8A	8e/L 8a 8cc	.	.	.	.	.	.	.	.	.
8D\ 8G 8B	8c/ 8g 8b	.	4r	.	.	4r	.	4r	.	.
8D\J 8F#X 8A	8d/J 8f#X 8a	.	.	.	.	.	.	.	.	.
!!LO:LB:g=original
=41||	=41||	=41||	=41||	=41||	=41||	=41||	=41||	=41||	=41||	=41||
*ok[]	*ok[]	*	*ok[]	*	*	*ok[]	*	*ok[]	*	*
*k[f#]	*k[f#]	*	*k[f#]	*	*	*k[f#]	*	*k[f#]	*	*
*^	*	*	*	*	*	*	*	*	*	*
!LO:TX:t=P:problem:brak powrotu znaków do G-dur	!	!LO:TX:t=P:problem:brak powrotu znaków do G-dur	!	!LO:TX:t=P:problem:brak powrotu znaków do G-dur	!	!	!LO:TX:t=P:problem:brak powrotu znaków do G-dur	!	!LO:TX:t=P:problem:brak powrotu znaków do G-dur	!	!
8GG\L	2.GG/	8.B/L 8.g	.	8.GG\ 8.G	.	.	8.B/	.	8.g/	Sta-	.
(8D\	.	.	.	.	.	.	.	.	.	.	.
.	.	16B/Jk 16d	.	16GG\ 16G	.	.	16B/	.	16d/	-ro-	.
8G\	.	4B/ 4d	.	4GG\ 4G	.	.	4B/	.	4d/	-daw-	.
8D\	.	.	.	.	.	.	.	.	.	.	.
8G\	.	4g/ 4b	.	4G\ 4B	.	.	4g/	.	4b\	-nym	.
8D\J)	.	.	.	.	.	.	.	.	.	.	.
=42	=42	=42	=42	=42	=42	=42	=42	=42	=42	=42	=42
*rep	*rep	*	*	*	*	*	*	*	*	*	*
8GG\L	2.GG/	4.b\ 4.dd	.	4.G\ 4.d	.	.	4.b/	.	4.dd\	o-	.
(8D\	.	.	.	.	.	.	.	.	.	.	.
8G\	.	.	.	.	.	.	.	.	.	.	.
8D\	.	8a#X\ 8cc#X	.	8G\ 8c#X	.	.	8a#X/	.	8cc#X\	-by-	.
8G\	.	8b\L 8dd	.	8G\ 8d	.	.	8b/	.	8dd\	-cza-	.
8D\J)	.	8g\J 8b	.	8G\ 8B	.	.	8g/	.	8b\	-jem	.
*Xrep	*Xrep	*	*	*	*	*	*	*	*	*	*
=43	=43	=43	=43	=43	=43	=43	=43	=43	=43	=43	=43
8DD/L	2.DD\	4.a\ 4.cc	.	4.D\ 4.d	.	.	4.a/	.	4.a/ 4.cc	Co	.
8AA/	.	.	.	.	.	.	.	.	.	.	.
8D/	.	.	.	.	.	.	.	.	.	.	.
8AA/	.	8g#X\ 8b	.	8D\ 8d	.	.	8g#X/	.	8g#X/ 8b	go	.
8D/	.	8a\L 8cc	.	8D\ 8d	.	.	8a/	.	8a/ 8cc	do-	.
8AA/J	.	8f#\J 8dd	.	8D\ 8d	.	.	8f#/	.	8dd\	-tąd	.
=44	=44	=44	=44	=44	=44	=44	=44	=44	=44	=44	=44
8GG\L	2.GG/	8g/L 8b	.	8G\ 8d	.	.	8f#/	.	8b/	Pol-	.
8D\	.	8f#/J 8a	.	8D\ 8c	.	.	8f#/	.	8a/	-ska	.
8G\	.	4g/	.	4G\ 4B	.	.	4g/	.	4g/	czci,	.
8D\	.	.	.	.	.	.	.	.	.	.	.
8G\	.	(8.d/L	.	4r	.	.	4r	.	4r	.	.
8D\J	.	.	.	.	.	.	.	.	.	.	.
.	.	32e/LL	.	.	.	.	.	.	.	.	.
.	.	32f#/JJJ)	.	.	.	.	.	.	.	.	.
!!LO:LB:g=original
=45	=45	=45	=45	=45	=45	=45	=45	=45	=45	=45	=45
8GG\L	2.GG/	8.B/L 8.g	.	8.GG\ 8.G	.	.	8.B/	Dziś	8.g/	[[Sta-	.
8D\	.	.	.	.	.	.	.	.	.	.	.
.	.	16B/Jk 16d	.	16GG\ 16G	.	.	16B/	przed	16d/	-ro-	.
8G\	.	4B/ 4d	.	4GG\ 4G	.	.	4B/	To-	4d/	-daw-	.
8D\	.	.	.	.	.	.	.	.	.	.	.
8G\	.	4g/ 4b	.	4G\ 4B	.	.	4g/	-bą	4b\	-nym	.
8D\J	.	.	.	.	.	.	.	.	.	.	.
=46	=46	=46	=46	=46	=46	=46	=46	=46	=46	=46	=46
*rep	*rep	*	*	*	*	*	*	*	*	*	*
8GG\L	2.GG/	4.b\ 4.dd	.	4.G\ 4.d	.	.	4.b/	Oj-	4.dd\	o-	.
8D\	.	.	.	.	.	.	.	.	.	.	.
8G\	.	.	.	.	.	.	.	.	.	.	.
8D\	.	8a#X\ 8cc#X	.	8G\ 8c#X	.	.	8a#X/	-cze	8cc#X\	-by-	.
8G\	.	8b\L 8dd	.	8G\ 8d	.	.	8b/	sta-	8dd\	-cza-	.
8D\J	.	8g\J 8b	.	8G\ 8B	.	.	8g/	-jem	8b\	-jem,	.
*Xrep	*Xrep	*	*	*	*	*	*	*	*	*	*
*v	*v	*	*	*	*	*	*	*	*	*	*
=47	=47	=47	=47	=47	=47	=47	=47	=47	=47	=47
4C\ 4E-X 4A	8.a/L	.	8.C\ 8.A	.	.	8.a/	By	8.a/	Co]]	.
.	16e-X/Jk	.	16C\ 16A	.	.	16e-X/	ży-	16e-X/	.	.
4D\ 4G 4B	4d/	.	4D\ 4B	.	.	4d/	-cze-	4d/	.	.
4D\ 4G 4B	4g/	.	4D\ 4B	.	.	4g/	-nia	4g/	.	.
=48	=48	=48	=48	=48	=48	=48	=48	=48	=48	=48
8.D\L 8.F# 8.c	8.f#/L 8.b	.	8.D\ 8.c	.	.	8.f#/	zło-	8.b/	.	.
16D\Jk 16F# 16c	16f#/Jk 16a	.	16D\ 16c	.	.	16f#/	-żyć	16a/	.	.
!	!LO:TX:b:i:t=rall.	!	!	!	!	!	!	!	!	!
8G\ 8B	4g/	.	8G\ 8B	.	.	4g/	Ci	4g/	.	.
!	!	!	!LO:TX:a:i:t=rall.	!	!	!	!	!	!	!
8D\L 8d	.	.	8d\L	By	.	.	.	.	.	.
8BB\ 8B	4r	.	8B\J	.	.	4r	.	4r	.	.
8GG\J 8G	.	.	8G\	ży-	.	.	.	.	.	.
!!LO:PB:g=original
=49	=49	=49	=49	=49	=49	=49	=49	=49	=49	=49
4.DD/ 4.D	4r	.	4.D\ 4.d	-cze-	.	4r	.	4r	.	.
.	8r	.	.	.	.	8r	.	8r	.	.
8DD/L 8D	16d/LL 16f#	.	8D\ 8d	-nia	.	16d/	.	16f#/	By	.
.	16e/JJ 16g	.	.	.	.	16e/	.	16g/	ży-	.
8DD/ 8D	16f#/LL 16a	.	8D\ 8d	zło-	.	16f#/	.	16a/	-cze-	.
.	16g/ 16b	.	.	.	.	16g/	.	16b/	-nia	.
8DD/J 8D	16a/ 16cc	.	8D\ 8A	-żyć	.	16a/	.	16cc\	zło-	.
.	16f#/JJ 16dd	.	.	.	.	16f#/	.	16dd\	-żyć	.
=50	=50	=50	=50	=50	=50	=50	=50	=50	=50	=50
*	*	*	*^	*	*	*	*	*	*	*
4GG/ 4G	4g/ 4b	.	4G\ 4B	2ryy	Ci	.	4g/	.	4b\	Ci	.
8r	4r	.	8r	.	.	.	2r	.	4r	.	.
8D\L 8d	.	.	(>16D\LL 16d	.	By	.	.	.	.	.	.
.	.	.	32E\L 32e	.	.	.	.	.	.	.	.
.	.	.	32D\JJJ 32d	.	.	.	.	.	.	.	.
8BB\ 8B	4r	.	8B\)	8B/	.	.	.	.	4r	.	.
8GG\J 8G	.	.	8G\	8G/	ży	.	.	.	.	.	.
*	*	*	*v	*v	*	*	*	*	*	*	*
!!LO:LB:g=original
=51	=51	=51	=51	=51	=51	=51	=51	=51	=51	=51
4.DD/ 4.D	4r	.	4.D\ 4.d	.	.	4r	.	4r	.	.
.	8r	.	.	.	.	8r	.	8r	.	.
8DD/L 8D	16d/LL 16f#	.	8D\ 8d	.	.	16d/	.	16f#/	By	.
.	16e/JJ 16g	.	.	.	.	16e/	.	16g/	ży-	.
8DD/ 8D	16f#/LL 16a	.	8D\ 8d	.	.	16f#/	.	16a/	-cze-	.
.	16g/ 16b	.	.	.	.	16g/	.	16b/	-nia	.
8DD/J 8D	16a/ 16cc	.	8D\ 8A	.	.	16a/	.	16cc\	zło-	.
.	16f#/JJ 16dd	.	.	.	.	16f#/	.	16dd\	-żyć	.
=52	=52	=52	=52	=52	=52	=52	=52	=52	=52	=52
!	!	!	!	!	!	!	!	!LO:TX:a:t=a tempo	!	!
16GG/LL 16G	16g/LL	.	4G\ 4B	.	.	4g/	.	4g/	.	.
16G/	16g/	.	.	.	.	.	.	.	.	.
16D/	16b/	.	.	.	.	.	.	.	.	.
16BB/JJ	16dd/JJ	.	.	.	.	.	.	.	.	.
4GG/	4gg\	.	4r	.	.	4r	.	4r	.	.
8.CC/L 8.C	8.g\L 8.cc 8.ee	.	8.C\ 8.c	.	.	8.g/	Dziś	8.ee\	[[By	.
16CC/Jk 16C	16g\Jk 16cc 16ee	.	16C\ 16c	.	.	16g/	przed	16ee\	ży-	.
=53	=53	=53	=53	=53	=53	=53	=53	=53	=53	=53
4.DD/ 4.D	4.g\ 4.b 4.dd	.	4.D\ 4.B	.	.	4.g/	To-	4.dd\	-cze]]	.
!	!	!	!LO:TX:t=P:problem:8D 8B or 8D 8d	!	!	!	!	!	!	!
8DD/L 8D	8d/ 8g 8b	.	8D\ 8B	.	.	8g/	-bą	8b\	.	.
8DD/ 8D	8d/L 8g 8a	.	8D\ 8d	.	.	8g/	Oj-	8a\	.	.
8DD/J 8D	8d/J 8f# 8dd	.	8D\ 8d	.	.	8f#/	-cze	8dd\	.	.
!!LO:LB:g=original
=54	=54	=54	=54	=54	=54	=54	=54	=54	=54	=54
16GG\LL 16G	16d/LL 16g 16b	.	4G\ 4d	.	.	4g/	.	4b\	sta-	.
16G\	16g/	.	.	.	.	.	.	.	.	.
16D\	16b/	.	.	.	.	.	.	.	.	.
16BB\JJ	16dd/JJ	.	.	.	.	.	.	.	.	.
4GG/	4gg\	.	4G\ 4d	.	.	4g/	.	4b\	-jem	.
8.E\L 8.e	8.g/L 8.cc	.	8.E\ 8.c	.	.	8.g/	.	8.cc\	By	.
16C\Jk 16c	16g/Jk 16cc 16ee	.	16C\ 16c	.	.	16g/	.	16ee\	ży-	.
=55	=55	=55	=55	=55	=55	=55	=55	=55	=55	=55
4.D\ 4.d	4.g\ 4.b 4.dd	.	4.D\ 4.B	.	.	4.g/	.	4.dd\	-cze-	.
8D\L 8d	8d/ 8g 8b	.	8D\ 8d	.	.	8g/	.	8b\	-nia	.
8D\ 8d	8d/L 8g 8a	.	8D\ 8d	.	.	8g/	.	8a\	zło-	.
8D\J 8d	8d/J 8f# 8dd	.	8D\ 8d	.	.	8f#/	.	8dd\	-żyć	.
=56	=56	=56	=56	=56	=56	=56	=56	=56	=56	=56
16GG/LL 16G	16d/LL 16g 16b	.	2G\ 2d	.	.	2g/	.	2b\	Ci	.
16G/	16g/	.	.	.	.	.	.	.	.	.
16D/	16b/	.	.	.	.	.	.	.	.	.
16BB/JJ	16dd/JJ	.	.	.	.	.	.	.	.	.
4GG/	4gg\	.	.	.	.	.	.	.	.	.
8.E\L 8.e	8.g/L 8.cc	.	8.E\ 8.c	.	.	8.g/	.	8.cc\	By	.
16C\Jk 16c	16g/Jk 16cc 16ee	.	16C\ 16c	.	.	16g/	.	16ee\	ży-	.
=57	=57	=57	=57	=57	=57	=57	=57	=57	=57	=57
4.D\ 4.d	4.g\ 4.b 4.dd	.	4.D\ 4.B	.	.	4.g/	.	4.dd\	-cze-	.
!LO:TX:t=P:problem:mixedbeam	!	!	!	!	!	!	!	!	!	!
8D\L 8d	8d/L 8g 8b	.	8D\ 8d	.	.	8g/	.	8b\	-nia	.
8D\ 8d	8d/ 8g 8a	.	8D\ 8d	.	.	8g/	.	8a\	zło-	.
8DD/J 8D	8d/J 8f# 8dd	.	8D\ 8A	.	.	8f#/	.	8dd\	-żyć	.
!!LO:PB:g=original
=58	=58	=58	=58	=58	=58	=58	=58	=58	=58	=58
4G\ 4B	4g/	.	4G\ 4B	Ci	.	4g/	.	4g/	.	.
16r	16r	.	4r	.	.	4r	.	4r	.	.
(16G\LL	(16g/LL	.	.	.	.	.	.	.	.	.
16F#\	16f#/	.	.	.	.	.	.	.	.	.
16G\JJ	16g/JJ	.	.	.	.	.	.	.	.	.
16A\LL	16a/LL	.	8.r	.	.	8.r	.	8.r	.	.
16B\	16b/	.	.	.	.	.	.	.	.	.
16c\	16cc/	.	.	.	.	.	.	.	.	.
16d\JJ)	16dd/JJ)	.	16G\	ży-	.	16g/	.	16g/	.	.
=59	=59	=59	=59	=59	=59	=59	=59	=59	=59	=59
2.ryy	2.ryy	.	2C\ 2c	-cze-	.	2g/	.	2ee\	.	.
.	.	.	4C\ 4c	-nia	.	4g/	.	4ee\	.	.
=60	=60	=60	=60	=60	=60	=60	=60	=60	=60	=60
2.ryy	2.ryy	.	2D\ 2A	zło-	.	2f#/	.	2dd\	.	.
.	.	.	4D\ 4d	-żyć	.	4f#/	.	4dd\	.	.
=61	=61	=61	=61	=61	=61	=61	=61	=61	=61	=61
(16G\LL	(16g/LL	.	4G\	Ci.	.	4g/	.	4g/	.	.
16D\	16d/	.	.	.	.	.	.	.	.	.
16E\	16e/	.	.	.	.	.	.	.	.	.
16F#\JJ	16f#/JJ	.	.	.	.	.	.	.	.	.
16G\LL	16g/LL	.	4r	.	.	4r	.	4r	.	.
16F#\	16f#/	.	.	.	.	.	.	.	.	.
16G\	16g/	.	.	.	.	.	.	.	.	.
16A\JJ	16a/JJ	.	.	.	.	.	.	.	.	.
16B\LL	16b\LL	.	4r	.	.	4r	.	4r	.	.
16A\	16a\	.	.	.	.	.	.	.	.	.
16B\	16b\	.	.	.	.	.	.	.	.	.
16c\JJ)	16cc\JJ)	.	.	.	.	.	.	.	.	.
!!LO:LB:g=original
=62	=62	=62	=62	=62	=62	=62	=62	=62	=62	=62
8d\L	8dd'\L	.	2.ryy	.	.	2.ryy	.	2.ryy	.	.
16d\L	(16dd\L	.	.	.	.	.	.	.	.	.
16e\JJ	16ee\JJ	.	.	.	.	.	.	.	.	.
8d\L	8dd\L)	.	.	.	.	.	.	.	.	.
8D\ 8d	8dd'\	.	.	.	.	.	.	.	.	.
8C\ 8c	8cc'\ 8ee	.	.	.	.	.	.	.	.	.
8AA\J 8A	8cc'\J 8dd 8ff#	.	.	.	.	.	.	.	.	.
=63	=63	=63	=63	=63	=63	=63	=63	=63	=63	=63
!	!LO:TX:t=P:problem:mixedbeam	!	!	!	!	!	!	!	!	!
16GG\LL 16G	16b'>\LL 16dd 16gg	.	2.ryy	.	.	2.ryy	.	2.ryy	.	.
(16D\	(16d/	.	.	.	.	.	.	.	.	.
16E\	16e/	.	.	.	.	.	.	.	.	.
16F#\JJ	16f#/JJ	.	.	.	.	.	.	.	.	.
16G\LL	16g/LL	.	.	.	.	.	.	.	.	.
16F#\	16f#/	.	.	.	.	.	.	.	.	.
16G\	16g/	.	.	.	.	.	.	.	.	.
16A\JJ	16a/JJ	.	.	.	.	.	.	.	.	.
16B\LL	16b\LL	.	.	.	.	.	.	.	.	.
16A\	16a\	.	.	.	.	.	.	.	.	.
16B\	16b\	.	.	.	.	.	.	.	.	.
16c\JJ)	16cc\JJ	.	.	.	.	.	.	.	.	.
=64	=64	=64	=64	=64	=64	=64	=64	=64	=64	=64
8d\L	8dd\L)	.	2.ryy	.	.	2.ryy	.	2.ryy	.	.
16d\L	(16dd\L	.	.	.	.	.	.	.	.	.
16e\JJ	16ee\JJ	.	.	.	.	.	.	.	.	.
8d\L	8dd\L)	.	.	.	.	.	.	.	.	.
8D\ 8d	8dd'\	.	.	.	.	.	.	.	.	.
8C\ 8c	8cc'\ 8ee	.	.	.	.	.	.	.	.	.
8AA\J 8A	8cc'\J 8dd 8ff#	.	.	.	.	.	.	.	.	.
=65	=65	=65	=65	=65	=65	=65	=65	=65	=65	=65
8GG/ 8G	8b\ 8dd 8gg	.	2.ryy	.	.	2.ryy	.	2.ryy	.	.
16.r	16.r	.	.	.	.	.	.	.	.	.
32GG/ 32G	32g\ 32gg	.	.	.	.	.	.	.	.	.
4DD/ 4D	4d/ 4dd	.	.	.	.	.	.	.	.	.
4BBB/ 4BB	4B/ 4b	.	.	.	.	.	.	.	.	.
!!LO:LB:g=original
=66	=66	=66	=66	=66	=66	=66	=66	=66	=66	=66
4GGG/ 4GG	4G/ 4g	.	2.ryy	.	.	2.ryy	.	2.ryy	.	.
4r	4r	.	.	.	.	.	.	.	.	.
4r	4r	.	.	.	.	.	.	.	.	.
=67	=67	=67	=67	=67	=67	=67	=67	=67	=67	=67
4GG/ 4BB 4D 4G	4b\ 4dd 4gg 4bb	.	2.ryy	.	.	2.ryy	.	2.ryy	.	.
4r	4r	.	.	.	.	.	.	.	.	.
8.r	8.r	.	.	.	.	.	.	.	.	.
16GG\ 16D 16G	16B/ 16d 16g	.	.	.	.	.	.	.	.	.
=68	=68	=68	=68	=68	=68	=68	=68	=68	=68	=68
2.GG\ 2.D 2.G	2.B/ 2.d 2.g	.	2.ryy	.	.	2.ryy	.	2.ryy	.	.
!!LO:PB:g=original
==	==	==	==	==	==	==	==	==	==	==
*-	*-	*-	*-	*-	*-	*-	*-	*-	*-	*-
!!!system-decoration: s1,s2,s3{(s4,s5)}
!!!RDF**kern: < = below
!!!RDF**kern: > = above
!!!ENC: Marta Chmielewska
!!!END: 2021-06-10
!!!ENC:Anastazja Marusiak
!!!END:2021-06-07
